X: 8083
T: Constitution Breakdown
R: reel
M: 4/4
K: Gmajor
|:Bc|db b/b/b b2 fg|ag a/g/f g2 dc|Bdgd Bdgd|ec c/c/c cBAB|
ca a/a/a agga|gfff f3 f|efdf efdf|edBA G2 Bc|
d/d/b b/b/b b2 fg|ag a/g/f g2 dc|Bdgd Bdgd|ecc2 c3 F|
E2 cE dEcE|D2 BD cDBD|DFAB cAFG|AGGG G3 F|
EccE dEcE|DBBD cDBD|DFAB c/B/A FG|AGGG G2:|
|:Bc|db b/b/b b2 fg|aggf g2 dc|Bdgd Bdgd|ec c/c/c c2 AB|
ca a/a/a a2 ga|gffg f3 g|efdf efdf|edBA G2 Bc|
db b/b/b b2 fg|aggf g2 dc|Bdgd Bdgd|eccB c3 F|
E/F/E cE dEcE|D/E/D BD cDBD|DFAB c/B/A FG|AGGF G3 F|
E/F/E cE dEcE|D/E/D BD cDBD|DFAB c/B/A FG|AGGF GD:|
|:A/B/c|dbzb bafg|agzg gedc|BdgB dgBd|eczB cBAB|
caza a2 ga|gf f2 f2 A/B/c|d/e/d ^cd edcd|edBG D2 A/B/c|
d2 bb b2 fg|aggg gedc|BdgB dgBd|eccB c2 GF|
EGcd cAGE|DBBc BAGE|DFAB cAFA|GFGA BAGF|
Eccd cAGE|DGBc BAGE|DFAB c/B/A FA|GEDB, G,2:|

